priv/static/svgs/icons_new/sport-surfing.svg

<svg width="32" height="32" viewBox="0 0 32 32" fill="none" xmlns="http://www.w3.org/2000/svg">
<path d="M10.6464 16.2174C11.7002 16.4229 13.5162 16.6052 15.9949 16.2074C21.5125 15.3224 20.3559 12.9357 20.3559 12.9357C20.0842 11.7092 17.9037 10.6186 17.9037 10.6186C17.9037 10.6186 23.0435 8.77887 24.4883 13.8174M8.33665 23.6691L8.30682 26.5C27.9115 19.9466 26.4766 5.5237 26.4766 5.5237H26.4733C26.4733 5.5237 12.0515 4.08175 5.5 23.6923L8.33002 23.6625L8.33665 23.6691Z" stroke="black" stroke-linecap="round"/>
</svg>

<svg width="32" height="32" viewBox="0 0 32 32" fill="none" xmlns="http://www.w3.org/2000/svg">
  <symbol id="item" viewBox="0 0 32 32" stroke-width="1" fill="none">
    <path d="M10.646 16.217c1.054.206 2.87.388 5.349-.01 5.518-.885 4.36-3.271 4.36-3.271-.27-1.227-2.451-2.317-2.451-2.317s5.14-1.84 6.584 3.198M8.337 23.67l-.03 2.831c19.605-6.553 18.17-20.976 18.17-20.976h-.004S12.052 4.082 5.5 23.692l2.83-.03.007.007Z" stroke="currentColor" stroke-linecap="round"/>
  </symbol>
</svg>
